public/assets/img/telegram-blue.svg

<svg width="14" height="12" viewBox="0 0 14 12" fill="none" xmlns="http://www.w3.org/2000/svg">
<path d="M0.211449 5.58186C1.64368 4.76537 3.24245 4.08392 4.73626 3.39899C7.30619 2.27712 9.88633 1.17469 12.4925 0.148349C12.9996 -0.0265305 13.9107 -0.197553 14 0.580157C13.9511 1.681 13.7499 2.77539 13.6118 3.86979C13.2615 6.27646 12.8565 8.67489 12.4617 11.0736C12.3256 11.8726 11.3585 12.2863 10.7397 11.775C9.2525 10.7353 7.75389 9.70578 6.28571 8.64203C5.80477 8.13625 6.25074 7.40995 6.68027 7.04878C7.90515 5.79948 9.20416 4.73805 10.365 3.42419C10.6782 2.64156 9.75294 3.30114 9.44777 3.50323C7.77089 4.69917 6.13506 5.96812 4.36712 7.01919C3.46405 7.53369 2.41152 7.09401 1.50886 6.80691C0.699512 6.46011 -0.486479 6.11072 0.211367 5.58191L0.211449 5.58186Z" fill="#158AFF"/>
</svg>

<svg width="14" height="12" fill="none" xmlns="http://www.w3.org/2000/svg"><path d="M.211 5.582c1.433-.817 3.031-1.498 4.525-2.183 2.57-1.122 5.15-2.224 7.756-3.25C13-.028 13.912-.199 14 .58c-.049 1.101-.25 2.195-.388 3.29-.35 2.406-.755 4.805-1.15 7.204-.136.799-1.104 1.212-1.722.701-1.488-1.04-2.986-2.07-4.454-3.133-.481-.506-.035-1.232.394-1.593 1.225-1.25 2.524-2.311 3.685-3.625.313-.782-.612-.123-.917.08-1.677 1.195-3.313 2.464-5.08 3.515-.904.515-1.956.075-2.86-.212C.7 6.46-.485 6.11.212 5.582Z" fill="#158AFF"/></svg>
